icons/circle/48/gns3.svg

<svg xmlns="http://www.w3.org/2000/svg" viewBox="0 0 48 48">
 <defs>
  <linearGradient id="linearGradient3764" x1="1" x2="47" gradientUnits="userSpaceOnUse" gradientTransform="matrix(0,-1,1,0,-1.5e-6,47.999998)">
   <stop style="stop-color:#e4e4e4;stop-opacity:1"/>
   <stop offset="1" style="stop-color:#eee;stop-opacity:1"/>
  </linearGradient>
 </defs>
 <g>
  <path d="m 36.31 5 c 5.859 4.062 9.688 10.831 9.688 18.5 c 0 12.426 -10.07 22.5 -22.5 22.5 c -7.669 0 -14.438 -3.828 -18.5 -9.688 c 1.037 1.822 2.306 3.499 3.781 4.969 c 4.085 3.712 9.514 5.969 15.469 5.969 c 12.703 0 23 -10.298 23 -23 c 0 -5.954 -2.256 -11.384 -5.969 -15.469 c -1.469 -1.475 -3.147 -2.744 -4.969 -3.781 z m 4.969 3.781 c 3.854 4.113 6.219 9.637 6.219 15.719 c 0 12.703 -10.297 23 -23 23 c -6.081 0 -11.606 -2.364 -15.719 -6.219 c 4.16 4.144 9.883 6.719 16.219 6.719 c 12.703 0 23 -10.298 23 -23 c 0 -6.335 -2.575 -12.06 -6.719 -16.219 z" style="opacity:0.05"/>
  <path d="m 41.28 8.781 c 3.712 4.085 5.969 9.514 5.969 15.469 c 0 12.703 -10.297 23 -23 23 c -5.954 0 -11.384 -2.256 -15.469 -5.969 c 4.113 3.854 9.637 6.219 15.719 6.219 c 12.703 0 23 -10.298 23 -23 c 0 -6.081 -2.364 -11.606 -6.219 -15.719 z" style="opacity:0.1"/>
  <path d="m 31.25 2.375 c 8.615 3.154 14.75 11.417 14.75 21.13 c 0 12.426 -10.07 22.5 -22.5 22.5 c -9.708 0 -17.971 -6.135 -21.12 -14.75 a 23 23 0 0 0 44.875 -7 a 23 23 0 0 0 -16 -21.875 z" style="opacity:0.2"/>
 </g>
 <g>
  <path d="m 24 1 c 12.703 0 23 10.297 23 23 c 0 12.703 -10.297 23 -23 23 -12.703 0 -23 -10.297 -23 -23 0 -12.703 10.297 -23 23 -23 z" style="fill:url(#linearGradient3764);fill-opacity:1"/>
 </g>
 <g>
  <g>
   <g transform="translate(1,1)">
    <g style="opacity:0.1">
     <!-- color: #eeeeee -->
    </g>
   </g>
  </g>
 </g>
 <g>
  <path d="m 40.03 7.531 c 3.712 4.084 5.969 9.514 5.969 15.469 0 12.703 -10.297 23 -23 23 c -5.954 0 -11.384 -2.256 -15.469 -5.969 4.178 4.291 10.01 6.969 16.469 6.969 c 12.703 0 23 -10.298 23 -23 0 -6.462 -2.677 -12.291 -6.969 -16.469 z" style="opacity:0.1"/>
 </g>
 <g>
  <g>
   <g>
    <!-- color: #eeeeee -->
    <g>
     <path d="m 25 12 a 4 4 0 0 0 -4 4 4 4 0 0 0 2.02 3.469 c -1.194 1.76 -4.201 6.209 -5.531 8.564 A 4 4 0 0 0 17 28 a 4 4 0 0 0 -4 4 4 4 0 0 0 4 4 4 4 0 0 0 3.867 -3 l 8.264 0 A 4 4 0 0 0 33 36 4 4 0 0 0 37 32 4 4 0 0 0 33 28 4 4 0 0 0 32.514 28.04 C 31.18 25.681 28.17 21.23 26.98 19.469 A 4 4 0 0 0 29 16 4 4 0 0 0 25 12 m -0.604 7.949 A 4 4 0 0 0 25 20 4 4 0 0 0 25.602 19.951 l 5.449 8.563 A 4 4 0 0 0 29 32 l -8 0 a 4 4 0 0 0 -2.051 -3.49 l 5.447 -8.561 z" style="fill:#000;opacity:0.1;fill-opacity:1;stroke:none;fill-rule:nonzero"/>
     <path d="m 16 28 c 0.461 -1.426 7 -11 7 -11 l 1 1 l -7 11 m -1 -1" style="fill:#36abd7;fill-opacity:1;stroke:none;fill-rule:nonzero"/>
     <path d="m 18 31 l 0 1 l 12 0 l 0 -1 m -12 0" style="fill:#e55858;fill-opacity:1;stroke:none;fill-rule:nonzero"/>
     <path d="m 31.996 28 c -0.461 -1.426 -7 -11 -7 -11 l -1 1 l 7 11 m 1 -1" style="fill:#ff9500;fill-opacity:1;stroke:none;fill-rule:nonzero"/>
    </g>
   </g>
  </g>
  <circle r="4" cy="31" cx="16" style="fill:#e55858;opacity:1;fill-opacity:1;stroke:none"/>
  <circle cx="32" cy="31" r="4" style="fill:#ff9500;opacity:1;fill-opacity:1;stroke:none"/>
  <circle cx="24" cy="15" r="4" style="fill:#36abd7;opacity:1;fill-opacity:1;stroke:none"/>
 </g>
</svg>

<svg xmlns="http://www.w3.org/2000/svg" viewBox="0 0 48 48">
  <defs>
    <linearGradient id="a" x1="1" x2="47" gradientUnits="userSpaceOnUse" gradientTransform="rotate(-90 24 24)">
      <stop stop-color="#e4e4e4"/>
      <stop offset="1" stop-color="#eee"/>
    </linearGradient>
  </defs>
  <path d="M36.31 5c5.859 4.062 9.688 10.831 9.688 18.5 0 12.426-10.07 22.5-22.5 22.5-7.669 0-14.438-3.828-18.5-9.688a23.24 23.24 0 0 0 3.781 4.969 22.923 22.923 0 0 0 15.469 5.969c12.703 0 23-10.298 23-23a22.92 22.92 0 0 0-5.969-15.469A23.216 23.216 0 0 0 36.31 5zm4.969 3.781A22.911 22.911 0 0 1 47.498 24.5c0 12.703-10.297 23-23 23a22.909 22.909 0 0 1-15.719-6.219C12.939 45.425 18.662 48 24.998 48c12.703 0 23-10.298 23-23 0-6.335-2.575-12.06-6.719-16.219z" opacity=".05"/>
  <path d="M41.28 8.781a22.923 22.923 0 0 1 5.969 15.469c0 12.703-10.297 23-23 23A22.92 22.92 0 0 1 8.78 41.281 22.911 22.911 0 0 0 24.499 47.5c12.703 0 23-10.298 23-23A22.909 22.909 0 0 0 41.28 8.781z" opacity=".1"/>
  <path d="M31.25 2.375C39.865 5.529 46 13.792 46 23.505c0 12.426-10.07 22.5-22.5 22.5-9.708 0-17.971-6.135-21.12-14.75a23 23 0 0 0 44.875-7 23 23 0 0 0-16-21.875z" opacity=".2"/>
  <path d="M24 1c12.703 0 23 10.297 23 23S36.703 47 24 47 1 36.703 1 24 11.297 1 24 1z" fill="url(#a)"/>
  <g>
    <path d="M40.03 7.531A22.922 22.922 0 0 1 45.999 23c0 12.703-10.297 23-23 23A22.92 22.92 0 0 1 7.53 40.031C11.708 44.322 17.54 47 23.999 47c12.703 0 23-10.298 23-23 0-6.462-2.677-12.291-6.969-16.469z" opacity=".1"/>
  </g>
  <g>
    <path d="M25 12a4 4 0 0 0-4 4 4 4 0 0 0 2.02 3.469c-1.194 1.76-4.201 6.209-5.531 8.564A4 4 0 0 0 17 28a4 4 0 0 0-4 4 4 4 0 0 0 4 4 4 4 0 0 0 3.867-3h8.264A4 4 0 0 0 33 36a4 4 0 0 0 4-4 4 4 0 0 0-4-4 4 4 0 0 0-.486.04c-1.334-2.359-4.344-6.81-5.534-8.571A4 4 0 0 0 29 16a4 4 0 0 0-4-4m-.604 7.949A4 4 0 0 0 25 20a4 4 0 0 0 .602-.049l5.449 8.563A4 4 0 0 0 29 32h-8a4 4 0 0 0-2.051-3.49l5.447-8.561z" opacity=".1"/>
    <path d="M16 28c.461-1.426 7-11 7-11l1 1-7 11m-1-1" fill="#36abd7"/>
    <path d="M18 31v1h12v-1m-12 0" fill="#e55858"/>
    <path d="M31.996 28c-.461-1.426-7-11-7-11l-1 1 7 11m1-1" fill="#ff9500"/>
    <circle r="4" cy="31" cx="16" fill="#e55858"/>
    <circle cx="32" cy="31" r="4" fill="#ff9500"/>
    <circle cx="24" cy="15" r="4" fill="#36abd7"/>
  </g>
</svg>
